!!!!SEGMENT: pl-wnifc--3119-n--001-004_szymanowska-maria--duoze-exercices-no-4-con-moto.krn
!!!cenid: 18xx:3836
!!!COM: Szymanowska, Maria
!!!COM-rismID: pe140138
!!!CDT: 1789/12/14-1831/07/25
!!!CNT: Polish
!!!GTL: Duoze Exercices
!!!OTL: No. 4. Con moto
!!!OMV: 004
!!!PDT: 1825
!!!AGN: Secular; Etude
!!!YEC: Copyright 2022 Narodowy Instytut Fryderyka Chopina (https://polishscores.org)
!!!YEM: License CC-BY-4.0 (https://creativecommons.org/licenses/by/4.0)
!!!SMS-siglum: PL-Wnifc
!!!SMS-shelfmark: 3119/n
!!!SMS-shelfwork: 001-004 G
!!!SMS-variant:
!!!SMS-altvar:
!!!NIFC-rismSourceID: 1001142147
!!!NIFC-rismChildID: 1001142152
!!!NIFC-islandoraID: nifc:212170
!!!URL-pdf-islandora: https://repozytorium.nifc.pl/islandora/object/nifc%3A212170/datastream/PDF/view
!!!URL-scan: https://polish.musicsources.pl/pl/lokalizacje/galeria/druki-muzyczne/16830 @EN{Scan on Polish Music Sources Website} @PL{Skany w portalu Dziedzictwo Muzyki Polskiej w otwartym dostępie}
!!!IIIF:
!!!ONB-nifc:
!!!AIN: 1 piano
!!!key: B-
!!!OMD:
!!!OMD-mod: Con moto
**kern	**fing	**kern	**fing	**dynam
*part1	*	*part1	*	*
*staff2	*	*staff1	*	*
*I"Pianoforte	*	*I"Pianoforte	*	*
*I'	*	*I'	*	*
*Ipiano	*	*Ipiano	*	*
*ICklav	*	*ICklav	*	*
*IGsolo	*	*IGsolo	*	*
*mI'pf	*	*mI'pf	*	*
*clefF4	*	*clefG2	*	*
*k[b-e-]	*	*k[b-e-]	*	*
*B-:	*	*B-:	*	*
*M6/8	*	*M6/8	*	*
=1	=1	=1	=1	=1
!	!	!LO:TX:a:t=Con moto:mod=	!	!
8BB-\L	.	32r	.	.
.	.	32d/LLL	.	.
.	.	32f/	.	.
.	.	32d/	.	.
8dJ 8B- 8F\	.	32b-/	.	sf
.	.	32f/	.	.
.	.	32dd/	.	.
.	.	32b-/	.	.
8r	.	32f/	.	.
.	.	32d/	.	.
.	.	32dd/	.	.
.	.	32b-/JJJ	.	.
8BB-\L	.	32r	.	.
.	.	32d/LLL	.	.
.	.	32f/	.	.
.	.	32d/	.	.
8dJ 8B- 8F\	.	32b-/	.	sf
.	.	32f/	.	.
.	.	32dd/	.	.
.	.	32b-/	.	.
8r	.	32f/	.	.
.	.	32d/	.	.
.	.	32dd/	.	.
.	.	32b-/JJJ	.	.
=2	=2	=2	=2	=2
8BB-\L	.	32r	.	.
.	.	32e-/LLL	.	.
.	.	32g/	.	.
.	.	32e-/	.	.
8B-J 8G 8E-`\	.	32b-/	.	.
.	.	32g/	.	.
.	.	32ee-/	.	.
.	.	32b-/	.	.
8r	.	32g/	.	.
.	.	32e-/	.	.
.	.	32ee-/	.	.
.	.	32b-/JJJ	.	.
8BB-\L	.	32r	.	.
.	.	32e-/LLL	.	.
.	.	32g/	.	.
.	.	32e-/	.	.
8B-J 8G 8E-`\	.	32b-/	.	.
.	.	32g/	.	.
.	.	32ee-/	.	.
.	.	32b-/	.	.
8r	.	32g/	.	.
.	.	32e-/	.	.
.	.	32ee-/	.	.
.	.	32b-/JJJ	.	.
=3	=3	=3	=3	=3
8BB-\L	.	32r	.	.
.	.	32e-/LLL	.	.
.	.	32a/	.	.
.	.	32e-/	.	.
8cJ 8A 8F\	.	32cc/	.	.
.	.	32a/	.	.
.	.	32ee-/	.	.
.	.	32cc/	.	.
8r	.	32a/	.	.
.	.	32e-/	.	.
.	.	32ee-/	.	.
.	.	32cc/JJJ	.	.
8BB-\L	.	32r	.	.
.	.	32e-/LLL	.	.
.	.	32f/	.	.
.	.	32e-/	.	.
8cJ 8A 8F\	.	32cc/	.	.
.	.	32f/	.	.
.	.	32ee-/	.	.
.	.	32cc/	.	.
8r	.	32f/	.	.
.	.	32e-/	.	.
.	.	32ee-/	.	.
.	.	32cc/JJJ	.	.
!!LO:LB:g=original
=4	=4	=4	=4	=4
8BB-\L	.	32r	.	.
.	.	32d/LLL	.	.
.	.	32f/	.	.
.	.	32d/	.	.
8dJ 8B- 8F\	.	32b-/	.	.
.	.	32f/	.	.
.	.	32dd/	.	.
.	.	32b-/	.	.
8r	.	32f/	.	.
.	.	32d/	.	.
.	.	32dd/	.	.
.	.	32b-/JJJ	.	.
8BB-\L	.	32r	.	.
.	.	32f/LLL	.	.
.	.	32b-/	.	.
.	.	32f/	.	.
8dJ 8B- 8F\	.	32dd/	.	.
.	.	32b-/	.	.
.	.	32ff/	.	.
.	.	32dd/	.	.
8r	.	32b-/	.	.
.	.	32f/	.	.
.	.	32ff/	.	.
.	.	32dd/JJJ	.	.
=5	=5	=5	=5	=5
8D\L	.	32r	.	.
.	.	32f/LLL	.	p
.	.	32b-/	.	.
.	.	32f/	.	.
8fJ 8B-\	.	32dd/	.	.
.	.	32b-/	.	.
.	.	32ff/	.	.
.	.	32dd/	.	.
8r	.	32b-/	.	.
.	.	32f/	.	.
.	.	32ff/	.	.
.	.	32dd/JJJ	.	.
8D\L	.	32r	.	.
*	*	*8va	*	*
.	.	32ff/LLL	.	f
.	.	32bb-/	.	.
.	.	32ff/	.	.
8fJ 8B-\	.	32ddd/	.	.
.	.	32bb-/	.	.
.	.	32fff/	.	.
.	.	32ddd/	.	.
8r	.	32bb-/	.	.
.	.	32ff/	.	.
.	.	32fff/	.	.
.	.	32ddd/JJJ	.	.
*	*	*X8va	*	*
=6	=6	=6	=6	=6
8E-\L	.	32r	.	.
!	!	!LO:TX:a:t=loco	!	!
.	.	32g/LLL	.	p
.	.	32b-/	.	.
.	.	32g/	.	.
8gJ 8c 8B-\	.	32cc/	.	.
.	.	32b-/	.	.
.	.	32gg/	.	.
.	.	32cc/	.	.
8r	.	32b-/	.	.
.	.	32g/	.	.
.	.	32gg/	.	.
.	.	32cc/JJJ	.	.
8E-\L	.	32r	.	.
*	*	*8va	*	*
.	.	32gg/LLL	.	f
.	.	32bb-/	.	.
.	.	32gg/	.	.
8gJ 8c 8B-\	.	32ccc/	.	.
.	.	32bb-/	.	.
.	.	32ggg/	.	.
.	.	32ccc/	.	.
8r	.	32bb-/	.	.
.	.	32gg/	.	.
.	.	32ggg/	.	.
.	.	32ccc/JJJ	.	.
!!LO:LB:g=original
=7	=7	=7	=7	=7
8F\L	.	32r	.	.
.	.	32ff/LLL	.	p
.	.	32bb-/	.	.
.	.	32ff/	.	.
8fJ 8d 8B-\	.	32ddd/	.	.
.	.	32bb-/	.	.
.	.	32fff/	.	.
.	.	32ddd/	.	.
8r	.	32bb-/	.	.
.	.	32ff/	.	.
.	.	32fff/	.	.
.	.	32ddd/JJJ	.	.
8F\L	.	32r	.	.
.	.	32ff/LLL	.	sf
.	.	32bb-/	.	.
.	.	32ff/	.	.
8f 8c 8B-\	.	32ccc/	.	.
.	.	32bb-/	.	.
.	.	32fff/	.	.
.	.	32ccc/	.	.
8fJ 8c 8A\	.	32aa/	.	.
.	.	32ff/	.	.
.	.	32fff/	.	.
.	.	32ccc/JJJ	.	.
=8	=8	=8	=8	=8
4d: 4B-: 4F: 4BB-:\	.	32r	.	.
.	.	32ff/LLL	.	.
.	.	32bb-/	.	.
.	.	32ff/	.	.
.	.	32ddd/	.	.
.	.	32bb-/	.	.
.	.	32fff/	.	.
.	.	32ddd/	.	.
8r	.	32bb-/	.	.
.	.	32ff/	.	.
.	.	32ddd/	.	.
.	.	32bb-/JJJ	.	.
4r	.	32fff\LLL	.	.
.	.	32ddd\	.	.
*	*	*X8va	*	*
!	!	!LO:TX:a:t=loco	!	!
.	.	32bb-\	.	.
.	.	32ff\	.	.
.	.	32dd\	.	.
.	.	32b-\	.	.
.	.	32ff\	5	.
.	.	32dd\	4	.
8r	.	32b-\	2	.
.	.	32f\	1	.
.	.	32cc\	5	.
.	.	32e-\JJJ	2	.
=9	=9	=9	=9	=9
!	!	!LO:TX:b:t=sotto voce	!	!
32BB-\LLL	5	4.b- 4.f 4.d/	.	.
32D\	3	.	.	.
32F\	1	.	.	.
32D\	5	.	.	.
32B-\	2	.	.	.
32F\	4	.	.	.
32d\	1	.	.	.
32B-\	2	.	.	.
32F\	4	.	.	.
32D\	5	.	.	.
32B-\	1	.	.	.
32F\JJJ	2	.	.	.
32BB-\LLL	.	4.ff 4.dd 4.b- 4.f\	.	.
32D\	.	.	.	.
32F\	.	.	.	.
32D\	.	.	.	.
32B-\	.	.	.	.
32F\	.	.	.	.
32d\	.	.	.	.
32B-\	.	.	.	.
32F\	.	.	.	.
32D\	.	.	.	.
32B-\	.	.	.	.
32F\JJJ	.	.	.	.
!!LO:LB:g=original
=10	=10	=10	=10	=10
32BB-\LLL	5	4.gg 4.ee- 4.b- 4.g\	.	.
32E-\	3	.	.	.
32G\	1	.	.	.
32E-\	5	.	.	.
32B-\	2	.	.	.
32G\	3	.	.	.
32e-\	1	.	.	.
32B-\	2	.	.	.
32G\	3	.	.	.
32E-\	5	.	.	.
32B-\	1	.	.	.
32G\JJJ	2	.	.	.
32BB-\LLL	5	4.aa 4.ee- 4.cc 4.a\	.	.
32E-\	3	.	.	.
32G-X\	2	.	.	.
32E-\	3	.	.	.
32A\	1	.	.	.
32G-\	3	.	.	.
32c\	1	.	.	.
32A\	2	.	.	.
32G-\	3	.	.	.
32E-\	4	.	.	.
32A\	1	.	.	.
32C\JJJ	4	.	.	.
=11	=11	=11	=11	=11
32BB-\LLL	.	32d/LLL	1	.
32D\	.	32f/	2	.
32F\	.	32b-/	4	.
32D\	.	32f/	1	.
32B-\	.	32dd/	4	.
32F\	.	32b-/	2	.
32d\	.	32ff/	5	.
32B-\	.	32dd/	4	.
32F\	.	32b-/	2	.
32D\	.	32f/	1	.
32B-\	.	32dd/	4	.
32F\JJJ	.	32b-/JJJ	2	.
32BB-\LLL	.	32f\LLL	1	.
32D\	.	32b-\	2	.
32F\	.	32dd\	4	.
32D\	.	32b-\	2	.
32B-\	.	32ff\	5	.
32F\	.	32dd\	1	.
32d\	.	32bb-\	5	.
32B-\	.	32ff\	3	.
32F\	.	32dd\	1	.
32D\	.	32b-\	2	.
32B-\	.	32ff\	5	.
32F\JJJ	.	32dd\JJJ	4	.
=12	=12	=12	=12	=12
32BB-\LLL	.	32g\LLL	.	.
32E-\	.	32b-\	.	.
32G\	.	32ee-\	.	.
32E-\	.	32b-\	.	.
32B-\	.	32gg\	.	.
32G\	.	32ee-\	.	.
32e-\	.	32bb-\	.	.
32B-\	.	32gg\	.	.
32G\	.	32ee-\	.	.
32E-\	.	32b-\	.	.
32B-\	.	32gg\	.	.
32G\JJJ	.	32ee-\JJJ	.	.
32BB-\LLL	5	32a/LLL	.	.
32E-\	3	32cc/	.	.
32G-X\	2	32ee-/	.	.
32E-\	3	32cc/	.	.
32A\	1	32gg-X/	.	.
32G-\	3	32ee-/	.	.
32c\	1	32aa/	.	.
32A\	2	32gg-/	.	.
32G-\	3	32ee-/	.	.
32E-\	4	32cc/	.	.
32C\	1	32a/	.	.
32AA\JJJ	5	32e-/JJJ	2	.
!!LO:LB:g=original
=13	=13	=13	=13	=13
32BB-\LLL	4	32d\LLL	1	.
32D\	2	32f\	2	.
32F\	1	32b-\	4	.
32D\	5	32f\	1	.
32B-\	2	32dd\	4	.
32F\	4	32b-\	2	.
32d\	1	32ff\	5	.
32B-\	2	32dd\	1	.
32c\	1	32ee-\	2	.
32A\	2	32ff\	1	.
32F\	3	32aa\	3	.
32E-\JJJ	4	32ccc\JJJ	5	.
*	*	*8va	*	*
32D\LLL	5	32bb-\LLL	4	.
32B-\	2	32ff\	1	.
32F\	5	32ddd\	4	.
32d\	1	32bb-\	2	.
*clefG2	*	*	*	*
32B-\	3	32fff\	5	.
32f\	1	32ddd\	1	.
32d\	5	32bbb-\	5	.
32b-\	2	32ddd\	1	.
32cc\	1	32eee-\	2	.
32a\	2	32fff\	1	.
32f\	3	32aaa\	3	.
32e-\JJJ	4	32cccc\JJJ	5	.
=14	=14	=14	=14	=14
32d/	.	32bbb-\	4	.
*	*	*X8va	*	*
!	!	!LO:TX:a:t=loco	!	!
32bb-\LLL	2	32ddd\LLL	3	.
32dd\	5	32fff\	.	.
32ff\	1	32bb-\	.	.
32b-\	4	32ddd\	.	.
32dd\	1	32ff\	.	.
32f\	4	32bb-\	.	.
32b-\JJJ	2	32dd\JJJ	.	.
16aLL 16f\	.	32ff\LLL	.	.
.	.	32ee-\	.	.
16fJJ 16e-\	3 2	32cc\	.	.
.	.	32a\JJJ	.	.
32f 32d/	.	32b-/	.	.
*clefF4	*	*	*	*
32B-\LLL	.	32d/LLL	.	.
32D\	.	32f/	.	.
32F\	.	32B-/	.	.
32BB-\	.	32d/	.	.
32D\	.	32F</	.	.
32FF\	.	32B-</	.	.
32BB-\JJJ	.	32D</JJJ	.	.
16AALL 16FF\	.	32F</LLL	.	.
.	.	32E-</	.	.
16FFJJ 16FFF\	.	32C</	.	.
.	.	32AA</JJJ	.	.
=15	=15	=15	=15	=15
16BBB-\LL	.	32BB-</LLL	.	<
.	.	32D</	.	.
32DD\L	.	32F</	.	.
32FF\	.	32B-</	.	.
32BB-\	.	32d/	.	.
32D\	.	32f/	.	.
32F\	.	32b-/	.	.
32B-\JJJ	.	32dd/JJJ	.	.
32d\LLL	.	32ff\LLL	.	[
32f\J	.	32bb-\	.	.
16F\JJ	.	32ee- 32cc\	.	.
.	.	32aa\JJJ	.	.
8B-`\L	.	4bb- 4dd 4b-\	.	f
8BB-`\J	.	.	.	.
8r	.	8r	.	.
!!LO:PB:g=original
=16||	=16||	=16||	=16||	=16||
16GGG\LL	.	32GG</LLL	.	ff
.	.	32BBn</	.	.
32BBBn\L	.	32D</	.	.
32DD\	.	32G</	.	.
32GG\	.	32Bn</	.	.
32BBn\	.	32d</	.	.
32D\	.	32g/	.	.
32G\JJJ	.	32bn/JJJ	.	.
32Bn\LLL	.	32dd\LLL	.	.
32d\J	.	32gg\	.	.
16D\JJ	.	32cc 32a\	.	.
.	.	32ff#X\JJJ	.	.
!LO:TX:a:t=P:problem:mixed beam	!	!	!	!
8G`\L	.	4gg 4bn 4g\	.	.
8GG`/J	.	.	.	.
8r	.	8r	.	.
=17	=17	=17	=17	=17
16AA-X\LL	.	32A-X\LLL	.	.
.	.	32c\	.	.
32C\L	.	32e-\	.	.
32E-\	.	32a-X\	.	.
32A-X\	.	32cc\	.	.
32c\	.	32ee-\	.	.
32e-\	.	32aa-X\	.	.
32a-X\JJJ	.	32ccc\JJJ	.	.
*clefG2	*	*	*	*
*	*	*8va	*	*
32cc\LLL	.	32eee-\LLL	.	.
32ee-\J	.	32aaa-X\	.	.
16e-\JJ	.	32eee- 32ddd-X\	.	.
.	.	32ggg\JJJ	.	.
16a-X/LL	.	32eee-LLL 32ccc\	.	.
.	.	32aaa-\JJJ	.	.
*	*	*X8va	*	*
!	!	!LO:TX:a:t=loco	!	!
16a-/JJ	.	32cccLLL 32ff#X^\	.	.
.	.	32ddd-\JJJ	.	.
16A-X/LL	.	32ff#LLL 32dd^\	.	.
.	.	32ccc\JJJ	.	.
16A-/JJ	.	32ddLLL 32cc^\	.	.
.	.	32ff#\JJJ	.	.
*clefF4	*	*	*	*
16AA-X/LL	.	32ccLLL 32f#X^/	.	.
.	.	32dd/JJJ	.	.
16AA-/JJ	.	32dLLL 32c^/	.	.
.	.	32f#/JJJ	.	.
=18	=18	=18	=18	=18
32GG\LLL	5	32Bn/LLL	1	.
32BBn\	3	32d/	2	.
32D\	1	32g/	4	.
32BB\	3	32d/	2	.
32G\	2	32bn/	5	.
32D\	4	32g/	1	.
32Bn\	1	32dd/	5	.
32G\JJJ	2	32b/JJJ	2	.
32A\LLL	1	32cc\LLL	1	.
32F#X\	2	32dd\	2	.
32D\	3	32ff#X\	3	.
32C\JJJ	4	32aa\JJJ	5	.
32BB\LLL	5	32gg\LLL	4	.
32G\	1	32dd\	1	.
32D\	.	32bbn\	4	.
32Bn\	2	32gg\	2	.
*	*	*8va	*	*
32G\	4	32ddd\	5	.
32d\	1	32bb\	1	.
32B\	5	32ggg\	5	.
32g\JJJ	2	32ddd\JJJ	2	.
32a\LLL	1	32ccc\LLL	1	.
32f#X\	2	32ddd\	2	.
32d\	3	32fff#X\	3	.
32c\JJJ	4	32aaa\JJJ	5	.
!!LO:LB:g=original
=19	=19	=19	=19	=19
32Bn\	.	32ggg\	.	.
*clefG2	*	*	*	*
*	*	*X8va	*	*
!	!	!LO:TX:b:t=loco	!	!
32gg\LLL	.	32bbn\LLL	3	.
32bn\	.	32ddd\	5	.
32dd\	.	32gg\	1	.
32g\	.	32bb\	5	.
32b\	.	32dd\	2	.
32d\	.	32gg\	4	.
32g\JJJ	.	32bn\JJJ	1	.
16f#XLL 16d/	.	32dd\LLL	5	.
.	.	32cc\	4	.
16dJJ 16c/	.	32a\	1	.
.	.	32f#X\JJJ	3	.
32d 32Bn/	.	32g/	4	.
*clefF4	*	*	*	*
32G\LLL	.	32Bn</LLL	.	.
32BBn\	.	32d</	.	.
32D\	.	32G</	.	.
32GG\	.	32B</	.	.
32BB\	.	32D</	.	.
32DD\	.	32G</	.	.
32GG\JJJ	.	32BBn</JJJ	.	.
16FF#XLL 16DD\	.	32D</LLL	.	.
.	.	32C</	.	.
16DD\JJ	.	32AA</	.	.
.	.	32FF#X</JJJ	.	.
=20	=20	=20	=20	=20
32GG\	.	32GG</	.	.
!	!	!	!	!LO:DY:a
32GG\LLL	.	32GG</LLL	.	>
32DD\	.	32BBn</	.	.
32BBBn\JJJ	.	32D</	.	.
32GGG\	.	32G</JJJ	.	]
!	!	!	!	!LO:DY:a
32G\LLL	.	32G<LLL	.	>
32D\	.	32Bn<\	.	.
32BBn\JJJ	.	32d<\JJJ	.	.
*	*	*clefG2	*	*
32GG/	.	32g/	.	]
32g\LLL	.	32g\LLL	.	>
32d\	.	32bn\	.	.
32Bn\JJJ	.	32dd\JJJ	.	.
!	!	!LO:TX:a:t=P:problem:mixed beam	!	!
8G\L	.	8gg\L	.	]
8GJ 8GG\	.	8gJ 8d 8B/	.	f
8r;	.	8r;	.	.
=21	=21	=21	=21	=21
8CL 8CC/	.	32r	.	.
.	.	32c/LLL	.	p
.	.	32e-/	.	.
.	.	32c/	.	.
8CJ 8CC/	.	32g/	.	.
.	.	32e-/	.	.
.	.	32cc/	.	.
.	.	32g/	.	.
8r	.	32e-/	.	.
.	.	32c/	.	.
.	.	32cc/	.	.
.	.	32g/JJJ	.	.
8cL 8G 8E- 8C\	.	32r	.	.
.	.	32cc\LLL	.	f
.	.	32ee-\	.	.
.	.	32cc\	.	.
8cJ 8G 8E- 8C\	.	32gg\	.	.
.	.	32ee-\	.	.
.	.	32ccc\	.	.
.	.	32gg\	.	.
8r	.	32ee-\	.	.
.	.	32cc\	.	.
.	.	32ccc\	.	.
.	.	32gg\JJJ	.	.
!!LO:LB:g=original
=22	=22	=22	=22	=22
8CL 8CC/	.	32r	.	.
.	.	32c/LLL	.	.
.	.	32d/	.	.
.	.	32c/	.	.
8CJ 8CC/	.	32a-X/	.	.
.	.	32f/	.	.
.	.	32cc/	.	.
.	.	32a-/	.	.
8r	.	32f/	.	.
.	.	32c/	.	.
.	.	32cc/	.	.
.	.	32a-/JJJ	.	.
8cL 8A-X 8F 8C\	.	32r	.	.
.	.	32cc\LLL	.	f
.	.	32ff\	.	.
.	.	32cc\	.	.
8cJ 8A- 8F 8C\	.	32aa-X\	.	.
.	.	32ff\	.	.
.	.	32ccc\	.	.
.	.	32aa-\	.	.
8r	.	32ff\	.	.
.	.	32cc\	.	.
.	.	32ccc\	.	.
.	.	32aa-\JJJ	.	.
=23	=23	=23	=23	=23
8CL 8CC/	.	32r	.	.
.	.	32d/LLL	.	p
.	.	32f/	.	.
.	.	32d/	.	.
8CJ 8CC/	.	32a-X/	.	.
.	.	32f/	.	.
.	.	32bn/	.	.
.	.	32a-/	.	.
8r	.	32f/	.	.
.	.	32d/	.	.
.	.	32b/	.	.
.	.	32a-/JJJ	.	.
8BnL 8A-X 8F 8C\	.	32r	.	.
.	.	32dd\LLL	.	f
.	.	32ff\	.	.
.	.	32dd\	.	.
8BJ 8A- 8F 8C\	.	32aa-X\	.	.
.	.	32ff\	.	.
.	.	32bbn\	.	.
.	.	32aa-\	.	.
8r	.	32ff\	.	.
.	.	32dd\	.	.
.	.	32bb\	.	.
.	.	32aa-\JJJ	.	.
=24	=24	=24	=24	=24
8CL 8CC/	.	32r	.	.
.	.	32c/LLL	.	p
.	.	32e-/	.	.
.	.	32c/	.	.
8CJ 8CC/	.	32g/	.	.
.	.	32e-/	.	.
.	.	32cc/	.	.
.	.	32g/	.	.
8r	.	32e-/	.	.
.	.	32c/	.	.
.	.	32cc/	.	.
.	.	32g/JJJ	.	.
8cL 8G 8E- 8C\	.	32r	.	.
.	.	32cc\LLL	.	f
.	.	32ee-\	.	.
.	.	32cc\	.	.
8cJ 8G 8E- 8C\	.	32gg\	.	.
.	.	32ee-\	.	.
.	.	32ccc\	.	.
.	.	32gg\	.	.
8r	.	32ee-\	.	.
.	.	32cc\	.	.
.	.	32ccc\	.	.
.	.	32gg\JJJ	.	.
=25	=25	=25	=25	=25
8CL 8CC/	.	32r	.	.
.	.	32c/LLL	.	p
.	.	32d/	.	.
.	.	32c/	.	.
8CJ 8CC/	.	32f/	.	.
.	.	32d/	.	.
.	.	32a-X/	.	.
.	.	32f/	.	.
8r	.	32d/	.	.
.	.	32c/	.	.
.	.	32a-/	.	.
.	.	32f/JJJ	.	.
8cL 8A-X 8F 8C\	.	32r	.	.
.	.	32cc\LLL	.	f
.	.	32dd\	.	.
.	.	32cc\	.	.
8cJ 8A- 8F 8C\	.	32ff\	.	.
.	.	32dd\	.	.
.	.	32aa-X\	.	.
.	.	32ff\	.	.
8r	.	32dd\	.	.
.	.	32cc\	.	.
.	.	32aa-\	.	.
.	.	32ff\JJJ	.	.
!!LO:LB:g=original
=26	=26	=26	=26	=26
8CL 8CC/	.	32r	.	.
.	.	32G/LLL	.	p
.	.	32c/	.	.
.	.	32G/	.	.
8CJ 8CC/	.	32e-/	.	.
.	.	32c/	.	.
.	.	32g/	.	.
.	.	32e-/	.	.
8r	.	32c/	.	.
.	.	32G/	.	.
.	.	32g/	.	.
.	.	32e-/JJJ	.	.
8cL 8G 8E- 8C\	.	32r	.	.
.	.	32g\LLL	.	f
.	.	32cc\	.	.
.	.	32g\	.	.
8cJ 8G 8E- 8C\	.	32ee-\	.	.
.	.	32cc\	.	.
.	.	32gg\	.	.
.	.	32ee-\	.	.
8r	.	32cc\	.	.
.	.	32g\	.	.
.	.	32gg\	.	.
.	.	32ee-\JJJ	.	.
=27	=27	=27	=27	=27
8BnL 8D 8GG\	.	32r	.	.
.	.	32f\LLL	.	.
.	.	32bn\	.	.
.	.	32f\	.	.
8BJ 8D 8GG\	.	32dd\	.	.
.	.	32b\	.	.
.	.	32gg\	.	.
.	.	32dd\	.	.
8r	.	32b\	.	.
.	.	32f\	.	.
.	.	32gg\	.	.
.	.	32dd\JJJ	.	.
8cL 8E- 8GG\	.	32r	.	.
.	.	32g\LLL	.	.
.	.	32cc\	.	.
.	.	32g\	.	.
8cJ 8E- 8GG\	.	32ee-\	.	.
.	.	32cc\	.	.
.	.	32gg\	.	.
.	.	32ee-\	.	.
8r	.	32cc\	.	.
.	.	32g\	.	.
.	.	32gg\	.	.
.	.	32ee-\JJJ	.	.
=28	=28	=28	=28	=28
[4.Bn [4.D [4.GG\	.	32r	.	.
.	.	32g\LLL	.	.
.	.	32bn\	.	.
.	.	32g\	.	.
.	.	32dd\	.	.
.	.	32b\	.	.
.	.	32gg\	.	.
.	.	32dd\	.	.
.	.	32bbn\	.	.
.	.	32gg\	.	.
.	.	32ddd^\	.	.
.	.	32bb\JJJ	.	.
4B] 4D] 4GG\]	.	32gg\LLL	.	.
.	.	32dd\	.	.
.	.	32bb^\	.	.
.	.	32gg\	.	.
.	.	32dd\	.	.
.	.	32b\	.	.
.	.	32gg^\	.	.
.	.	32dd\	.	.
8r	.	32b\	.	.
.	.	32g\	.	.
.	.	32dd\	.	.
.	.	32f\JJJ	.	.
!!LO:LB:g=original
=29	=29	=29	=29	=29
!	!	!LO:TX:b:t=ten	!	!
32AA-X\LLL	.	4.cc 4.a-X 4.e-/	.	.
32C\	.	.	.	.
32E-\	.	.	.	.
32C\	.	.	.	.
32A-X\	.	.	.	.
32E-\	.	.	.	.
32c\	.	.	.	.
32A-\	.	.	.	.
32E-\	.	.	.	.
32C\	.	.	.	.
32A-\	.	.	.	.
32E-\JJJ	.	.	.	.
32AA-\LLL	.	4.ee- 4.cc 4.a- 4.e-/	.	.
32C\	.	.	.	.
32E-\	.	.	.	.
32C\	.	.	.	.
32A-\	.	.	.	.
32E-\	.	.	.	.
32c\	.	.	.	.
32A-\	.	.	.	.
32E-\	.	.	.	.
32C\	.	.	.	.
32A-\	.	.	.	.
32E-\JJJ	.	.	.	.
=30	=30	=30	=30	=30
32AA-X\LLL	.	4.ff 4.dd-X 4.a-X 4.f\	.	.
32D-X\	.	.	.	.
32F\	.	.	.	.
32D-\	.	.	.	.
32A-X\	.	.	.	.
32F\	.	.	.	.
32d-X\	.	.	.	.
32A-\	.	.	.	.
32F\	.	.	.	.
32D-\	.	.	.	.
32A-\	.	.	.	.
32F\JJJ	.	.	.	.
!	!	!LO:TX:b:t=sempre piu forte:mod=sempre più forte	!	!
32AA-\LLL	.	4.gg 4.dd- 4.b- 4.g\	.	.
32D-\	.	.	.	.
32F-X\	.	.	.	.
32D-\	.	.	.	.
32G\	.	.	.	.
32F-\	.	.	.	.
32B-\	.	.	.	.
32G\	.	.	.	.
32F-\	.	.	.	.
32D-\	.	.	.	.
32G\	.	.	.	.
32BB-\JJJ	.	.	.	.
=31	=31	=31	=31	=31
32AA-X\LLL	.	32c/LLL	.	.
32C\	.	32e-/	.	.
32E-\	.	32a-X/	.	.
32C\	.	32e-/	.	.
32A-X\	.	32cc/	.	.
32E-\	.	32a-/	.	.
32c\	.	32ee-/	.	.
32A-\	.	32cc/	.	.
32E-\	.	32a-/	.	.
32C\	.	32e-/	.	.
32A-\	.	32cc/	.	.
32E-\JJJ	.	32a-/JJJ	.	.
32AA-\LLL	.	32e-\LLL	.	.
32C\	.	32a-X\	.	.
32E-\	.	32cc\	.	.
32C\	.	32a-\	.	.
32A-\	.	32ee-\	.	.
32E-\	.	32cc\	.	.
32c\	.	32aa-X\	.	.
32A-\	.	32ee-\	.	.
32E-\	.	32cc\	.	.
32C\	.	32a-\	.	.
32A-\	.	32ee-\	.	.
32E-\JJJ	.	32cc\JJJ	.	.
!!LO:PB:g=original
=32	=32	=32	=32	=32
32AA-X\LLL	.	32f\LLL	.	.
32D-X\	.	32a-X\	.	.
32F\	.	32dd-X\	.	.
32D-\	.	32a-\	.	.
32A-X\	.	32ff\	.	.
32F\	.	32dd-\	.	.
32d-X\	.	32aa-X\	.	.
32A-\	.	32ff\	.	.
32F\	.	32dd-\	.	.
32D-\	.	32a-\	.	.
32A-\	.	32ff\	.	.
32F\JJJ	.	32dd-\JJJ	.	.
32AA-\LLL	5	32g\LLL	1	.
32D-\	3	32b-\	2	.
32En\	2	32dd-\	3	.
32D-\	3	32b-\	2	.
32G\	1	32een\	4	.
32E\	5	32dd-\	3	.
32B-\	2	32gg\	5	.
32G\	1	32ee\	4	.
32E\	2	32dd-\	3	.
32D-\	3	32b-\	2	.
32BB-\	4	32g\	1	.
32GG\JJJ	5	32d-X\JJJ	2	.
=33	=33	=33	=33	=33
32AA-X\LLL	4	32c/LLL	1	.
32C\	2	32e-/	2	.
32E-\	1	32a-X/	4	.
32C\	.	32e-/	1	.
32A-X\	2	32cc/	4	.
32E-\	4	32a-/	2	.
32c\	.	32ee-/	5	.
32A-\JJJ	2	32cc/JJJ	4	.
32G\LLL	1	32dd-X\LLL	2	.
32En\	2	32een\	1	.
32D-X\	3	32gg\	3	.
32EEn\JJJ	4	32bb-\JJJ	5	.
32FF/LLL	5	32A-X/LLL	2	.
32AA-/	3	32c/	3	.
32C/	2	32f/	5	.
32AA-/	3	32c/	1	.
32F/	1	32a-X/	3	.
32C/	5	32f/	2	.
32A-X/	2	32cc/	5	.
32F/JJJ	3	32a-/JJJ	2	.
32G-X\LLL	1	32g-X\LLL	1	.
32E\	2	32a-\	2	.
32C\	1	32cc\	3	.
32CC\JJJ	2	32ee\JJJ	5	.
=34	=34	=34	=34	=34
32DD-X/LLL	5	32f/LLL	1	.
32FF/	4	32a-X/	2	.
32AA-X/	2	32dd-X/	4	.
32FF/	5	32a-/	2	.
32D-X/	2	32ff/	2	.
32AA-/	4	32dd-/	4	.
32F/	1	32aa-X/	5	.
32D-/JJJ	5	32ff/JJJ	1	.
32A-X\LLL	2	32ccc-X\LLL	5	.
32F\	3	32aa-\	4	.
32c-X\	1	32ff\	2	.
32A-\JJJ	2	32dd-\JJJ	1	.
32G-X\LLL	1	32bb-^\LLL	.	.
32D-\	.	32gg-X\	.	.
32BB-\	.	32dd-\	.	.
32GG-X\JJJ	.	32b-\JJJ	.	.
32F\LLL	.	32bb-^\LLL	.	f
32D-\	.	32ff\	.	.
32BB-\	.	32dd-\	.	.
32GG-\JJJ	.	32b-\JJJ	.	.
32En\LLL	.	32bb-^\LLL	.	.
32D-\	.	32een\	.	.
32BB-\	.	32dd-\	.	.
32GG-\JJJ	.	32b-\JJJ	.	.
!!LO:LB:g=original
=35	=35	=35	=35	=35
32En/LLL	.	32bb-\LLL	.	.
32C/	.	32een\	.	.
32BB-/	.	32cc\	.	.
32GG-X/JJJ	.	32b-\JJJ	.	.
32E/LLL	.	32bb-\LLL	.	.
32D-X/	.	32ee\	.	.
32BB-/	.	32dd-X\	.	.
32GG-/JJJ	.	32b-\JJJ	.	.
32E/LLL	.	32bb-\LLL	.	.
32C/	.	32ee\	.	.
32BB-/	.	32cc\	.	.
32GG-/JJJ	.	32b-\JJJ	.	.
32F/LLL	.	32aa\LLL	.	.
32C/	.	32ff\	.	.
32AA/	.	32cc\	.	.
32FF/JJJ	.	32a\JJJ	.	.
32A\LLL	.	32ff\LLL	.	.
32F\	.	32ee-X\	.	.
32C\	.	32a\	.	.
32AA\JJJ	.	32f\JJJ	.	.
32B-\LLL	.	32dd-X\LLL	.	.
32F\	.	32b-\	.	.
32D-X\	.	32f\	.	.
32BB-\JJJ	.	32d-X\JJJ	.	.
=36	=36	=36	=36	=36
!	!	!LO:TX:b:t=perdendosi	!	!
!	!	!LO:TX:t=per-den-do-si:dur=4q:ext=ud:problem:text with extention lines:mod=	!	!
32E-/LLL	.	32cc/LLL	.	.
32C/	.	32g-X/	.	.
32GG-X/	.	32e-X/	.	.
32EE-/JJJ	.	32c/JJJ	.	.
32En/LLL	.	32b-/LLL	.	.
32BB-/	.	32d-X/	.	.
32GGn/	.	32B-/	.	.
32EEn/JJJ	.	32Gn/JJJ	.	.
32FF/LLL	.	32f/LLL	.	.
32AA/	.	32e-/	.	.
32C/	.	32c/	.	.
32F/JJJ	.	32A/JJJ	.	.
4r	.	4r	.	.
8r;	.	8r;	.	.
=37	=37	=37	=37	=37
8BB-\L	.	32r	.	.
.	.	32dn/LLL	.	p
.	.	32f/	.	.
.	.	32d/	.	.
8dJ 8B- 8F\	.	32b-/	.	.
.	.	32f/	.	.
.	.	32dd/	.	.
.	.	32b-/	.	.
8r	.	32f/	.	.
.	.	32d/	.	.
.	.	32dd/	.	.
.	.	32b-/JJJ	.	.
8BB-\L	.	32r	.	.
.	.	32f/LLL	.	.
.	.	32b-/	.	.
.	.	32f/	.	.
8dJ 8B- 8F\	.	32dd/	.	.
.	.	32b-/	.	.
.	.	32ff/	.	.
.	.	32dd/	.	.
8r	.	32b-/	.	.
.	.	32f/	.	.
.	.	32ff/	.	.
.	.	32dd/JJJ	.	.
!!LO:LB:g=original
=38	=38	=38	=38	=38
8GG\L	.	32r	.	.
.	.	32f\LLL	.	rf
.	.	32bn\	.	.
.	.	32f\	.	.
8BnJ 8G 8D\	.	32dd\	.	.
.	.	32b\	.	.
.	.	32gg\	.	.
.	.	32dd\	.	.
8r	.	32b\	.	.
.	.	32f\	.	.
.	.	32gg\	.	.
.	.	32dd\JJJ	.	.
8C\L	.	32r	.	.
.	.	32g\LLL	.	.
.	.	32cc\	.	.
.	.	32g\	.	.
8cJ 8G 8E-\	.	32ee-\	.	.
.	.	32cc\	.	.
.	.	32gg\	.	.
.	.	32ee-\	.	.
8r	.	32cc\	.	.
.	.	32g\	.	.
.	.	32gg\	.	.
.	.	32ee-\JJJ	.	.
=39	=39	=39	=39	=39
8FF\L	.	32r	.	.
.	.	32e-\LLL	.	.
.	.	32a\	.	.
.	.	32e-\	.	.
8AJ 8E- 8C\	.	32cc\	.	.
.	.	32a\	.	.
.	.	32ff\	.	.
.	.	32cc\	.	.
8r	.	32a\	.	.
.	.	32f\	.	.
.	.	32ff\	.	.
.	.	32cc\JJJ	.	.
8BB-\L	.	32r	.	.
.	.	32d\LLL	.	.
.	.	32b-\	.	.
.	.	32d\	.	.
8B-J 8F 8D\	.	32dd\	.	.
.	.	32b-\	.	.
.	.	32ff\	.	.
.	.	32dd\	.	.
8r	.	32b-\	.	.
.	.	32f\	.	.
.	.	32ff\	.	.
.	.	32dd\JJJ	.	.
=40	=40	=40	=40	=40
8EE-/L	.	32r	.	.
.	.	32c/LLL	.	.
.	.	32e-/	.	.
.	.	32c/	.	.
8GJ 8E- 8C/	.	32b-/	.	.
.	.	32g/	.	.
.	.	32cc/	.	.
.	.	32b-/	.	.
8r	.	32g/	.	.
.	.	32c/	.	.
.	.	32cc/	.	.
.	.	32b-/JJJ	.	.
8FF/L	.	32r	.	.
.	.	32c/LLL	.	.
.	.	32e-/	.	.
.	.	32c/	.	.
8AJ 8E- 8C/	.	32a/	.	.
.	.	32e-/	.	.
.	.	32cc/	.	.
.	.	32a/	.	.
8r	.	32e-/	.	.
.	.	32c/	.	.
.	.	32cc/	.	.
.	.	32a/JJJ	.	.
=41	=41	=41	=41	=41
32BB-\LLL	.	4.b- 4.f 4.d/	.	.
32D\	.	.	.	.
32F\	.	.	.	.
32D\	.	.	.	.
32B-\	.	.	.	.
32F\	.	.	.	.
32d\	.	.	.	.
32B-\	.	.	.	.
32F\	.	.	.	.
32D\	.	.	.	.
32B-\	.	.	.	.
32F\JJJ	.	.	.	.
32BB-\LLL	.	4.ff 4.dd 4.b- 4.f\	.	.
32D\	.	.	.	.
32F\	.	.	.	.
32D\	.	.	.	.
32B-\	.	.	.	.
32F\	.	.	.	.
32d\	.	.	.	.
32B-\	.	.	.	.
32F\	.	.	.	.
32D\	.	.	.	.
32B-\	.	.	.	.
32F\JJJ	.	.	.	.
!!LO:LB:g=original
=42	=42	=42	=42	=42
32GG\LLL	.	4.gg 4.dd 4.bn 4.f\	.	.
32D\	.	.	.	.
32G\	.	.	.	.
32D\	.	.	.	.
32Bn\	.	.	.	.
32G\	.	.	.	.
32d\	.	.	.	.
32B\	.	.	.	.
32G\	.	.	.	.
32D\	.	.	.	.
32B\	.	.	.	.
32G\JJJ	.	.	.	.
32C\LLL	.	4.gg 4.ee- 4.cc 4.g\	.	.
32E-\	.	.	.	.
32G\	.	.	.	.
32E-\	.	.	.	.
32c\	.	.	.	.
32G\	.	.	.	.
32e-\	.	.	.	.
32c\	.	.	.	.
32G\	.	.	.	.
32E-\	.	.	.	.
32c\	.	.	.	.
32G\JJJ	.	.	.	.
=43	=43	=43	=43	=43
(32FF\LLL	.	4.ff 4.cc 4.a 4.e-\	.	.
32C\	.	.	.	.
32E-\	.	.	.	.
32C\	.	.	.	.
32A\	.	.	.	.
32E-\	.	.	.	.
32c\	.	.	.	.
32A\	.	.	.	.
32E-\	.	.	.	.
32C\	.	.	.	.
32A\)	.	.	.	.
32E-\JJJ	.	.	.	.
32BB-X\LLL	.	4.dd 4.b-X 4.f 4.d/	.	.
32D\	.	.	.	.
32F\	.	.	.	.
32D\	.	.	.	.
32B-\	.	.	.	.
32F\	.	.	.	.
32d\	.	.	.	.
32B-\	.	.	.	.
32F\	.	.	.	.
32D\	.	.	.	.
32B-\	.	.	.	.
32F\JJJ	.	.	.	.
=44	=44	=44	=44	=44
32EE-\LLL	.	4.cc 4.g 4.e- 4.c/	.	.
32C\	.	.	.	.
32E-\	.	.	.	.
32C\	.	.	.	.
32G\	.	.	.	.
32E-\	.	.	.	.
32c\	.	.	.	.
32G\	.	.	.	.
32E-\	.	.	.	.
32C\	.	.	.	.
32G\	.	.	.	.
32E-\JJJ	.	.	.	.
32FF\LLL	.	4.a 4.f 4.e- 4.c/	.	.
32C\	.	.	.	.
32E-\	.	.	.	.
32C\	.	.	.	.
32F\	.	.	.	.
32E-\	.	.	.	.
32A\	.	.	.	.
32F\	.	.	.	.
32E-\	.	.	.	.
32C\	.	.	.	.
32A\	.	.	.	.
32F\JJJ	.	.	.	.
=45	=45	=45	=45	=45
32BB-\LLL	.	32d/LLL	.	<
32D\	.	32f/	.	.
32F\	.	32b-/	.	.
32D\	.	32f/	.	.
32B-\	.	32dd/	.	.
32F\	.	32b-/	.	[ >
32d\	.	32ff/	.	.
32B-\JJJ	.	32dd/JJJ	.	.
32c\LLL	.	32ee-\LLL	.	.
32A\	.	32ff\	.	.
32F\	.	32aa\	.	.
32E-\JJJ	.	32ccc\JJJ	.	.
32D\LLL	.	32bb-\LLL	.	]
32B-\	.	32ff\	.	.
32F\	.	32ddd\	.	.
32d\	.	32bb-\	.	.
*	*	*8va	*	*
32B-\	.	32fff\	.	.
32f\	.	32ddd\	.	.
32d\	.	32bbb-\	.	.
32b-\JJJ	.	32fff\JJJ	.	.
*clefG2	*	*	*	*
32cc/LLL	.	32eee-\LLL	.	.
32a/	.	32fff\	.	.
32f/	.	32aaa\	.	.
32e-/JJJ	.	32cccc\JJJ	.	.
!!LO:LB:g=original
=46	=46	=46	=46	=46
32d/	.	32bbb-\	.	.
*	*	*X8va	*	*
!	!	!LO:TX:a:t=loco	!	!
(32bb-\LLL	.	32ddd\LLL	.	.
32dd\	.	32fff\	.	.
32ff\	.	32bb-\	.	.
32b-\	.	32ddd\	.	.
32dd\	.	32ff\	.	.
32f\	.	32bb-\	.	.
32b-\JJJ)	.	32dd\JJJ	.	.
!	!	!	!	!
16aLL 16f/	.	(32ff\LLL	.	>
.	.	32ee-\	.	.
16fJJ 16e-/	.	32cc\	.	.
.	.	32a\JJJ)	.	.
32f 32d\	.	32b-\	.	]
*clefF4	*	*	*	*
32B-\LLL	.	32d</LLL	.	.
32D\	.	32f</	.	.
32F\	.	32B-</	.	.
32BB-\	.	32d</	.	.
32D\	.	32F</	.	.
32FF\	.	32B-</	.	.
32BB-\JJJ	.	32D</	.	.
16AALL 16FF\	.	32F/	.	.
.	.	32E-/	.	.
16FFJJ 16FFF\	.	32C/	.	.
.	.	32AA/JJJ	.	.
=47	=47	=47	=47	=47
!	!	!LO:TX:a:t=con fuoco	!	!
32BBB-\	.	32BB-</	.	.
32BB-\LLL	.	32BB-</LLL	.	.
32FF\	.	32D</	.	.
32DD\JJJ	.	32F</JJJ	.	.
32BBB-\	.	32B<-^/	.	.
32B-\LLL	.	32B-</LLL	.	.
32F\	.	32d/	.	.
32D\JJJ	.	32f/JJJ	.	.
32BB-\	.	32b-^/	.	.
32b->\LLL	.	32b-/LLL	.	.
32f\	.	32dd/	.	.
32d\JJJ	.	32ff/JJJ	.	.
32B-\	.	32bb-^/	.	.
32F\LLL	.	32F</LLL	.	.
32D\	.	32B-</	.	.
32BB-\JJJ	.	32d</JJJ	.	.
32FF/	.	32f^/	.	.
32f>\LLL	.	32f/LLL	.	.
32d\	.	32b-/	.	.
32B-\JJJ	.	32dd/JJJ	.	.
32F\	.	32ff\	.	.
32F\LLL	.	32ff\LLL	.	.
32D\	.	32bb-\	.	.
32BB-\JJJ	.	32ddd\JJJ	.	.
=48	=48	=48	=48	=48
(32..FF\LLL	.	(36.fff^\LLL	.	f
.	.	72eee-\K	.	.
!LO:N:vis=64	!	!	!	!
128AA\KK	.	.	.	.
!	!	!LO:N:vis=64	!	!
!	!	!LO:N:vis=64	!	!
.	.	36ccc\	.	.
!LO:N:vis=64	!	!	!	!
32C\	.	.	.	.
!	!	!LO:N:vis=64	!	!
.	.	36aa\	.	.
!LO:N:vis=64	!	!	!	!
32E-\	.	.	.	.
!	!	!LO:N:vis=64	!	!
.	.	36ff\	.	.
!LO:N:vis=64	!	!	!	!
32F\	.	.	.	.
!	!	!LO:N:vis=64	!	!
.	.	36ee-\	.	.
!LO:N:vis=64	!	!	!	!
32A\	.	.	.	.
!	!	!LO:N:vis=64	!	!
.	.	36cc\	.	.
!LO:N:vis=64	!	!	!	!
32c\	.	.	.	.
!	!	!LO:N:vis=64	!	!
.	.	36a\	.	.
!LO:N:vis=64	!	!	!	!
32e-\JJJ)	.	.	.	.
!	!	!LO:N:vis=64	!	!
.	.	36f\JJJ)	.	.
16f\LL	.	16e-/LL	.	.
16FJJ 16FF\	.	16ffJJ 16cc 16a 16e-/	.	.
4.B- 4.F 4.BB-;\	.	4.dd 4.b- 4.f 4.d;/	.	.
==	==	==	==	==
*-	*-	*-	*-	*-
!!!RDF**kern: > = above
!!!RDF**kern: < = below
!!!system-decoration: {(s1,s2)}
!!!filter-modern: sic -sq | shed -k -e "s/LO:N:vis/LO:n:vis:/L" | shed -e "s/TX(.*):t=P:/tx$1:t=P:/LG" | shed -e "s/:rj/:RJ/L" | shed -k -e "s/([^a-gA-Gn#X-])[<>]/$1/g" | shed -e "s/LO:DY:(a|b|rj)/LO:dy:$1/L" | shed -e "s/-//B" | autostem -r | modori -m
!!!ENC: Berenika Jozajtis
!!!END: 2022-07-15
!!!EED: Urszula Świątek
!!!EEV: 2022-08-18
!!!ENC-modern: Andrzej Borzym
!!!END-modern: 2022-08-30
